X:885
T: Tap the Barrel
T: Bearnaigh an Bairille
S: B.Breathnach: "Ceol Rince na hEireann" II/266
Z: B.Black
L: 1/8
M: 4/4
R: reel
K: Dmix
D2 (3FED AD (3FED|cAGE CEGE|D2 (3FED AD (3FED|cAGE AD D2|
D2 (3FED AD (3FED|cAGE CEGE|D2 (3FED AD (3FED|cAGE AD D2 :|
d3g faed|cdef g2 fe|d3g faed|cAGE ED D2|
d3g faed|(3Bcd ef g2 fe|fafd (3efg ed|cAGE ED D2 :|
